packages/katcn/src/icons/svg/userScan-solid.svg

<svg width="24" height="25" viewBox="0 0 24 25" fill="none" xmlns="http://www.w3.org/2000/svg">
<path d="M8.80001 10.7761H15.1C15.7 10.7761 16.1 10.376 16.1 9.77605C16.1 7.47605 14.2 5.57605 11.9 5.57605C9.60001 5.57605 7.70001 7.47605 7.70001 9.77605C7.80001 10.2761 8.30001 10.7761 8.80001 10.7761Z" fill="black"/>
<path d="M22 16.4761C21.4 16.4761 21 16.8761 21 17.4761V19.2761C21 20.7761 19.8 21.8761 18.4 21.8761H16.6C16 21.8761 15.6 22.2761 15.6 22.8761C15.6 23.4761 16 23.8761 16.6 23.8761H18.4C21 23.8761 23 21.7761 23 19.2761V17.4761C23 16.9761 22.6 16.4761 22 16.4761Z" fill="black"/>
<path d="M7.5 21.976H5.6C4.2 21.976 3 20.776 3 19.376V17.576C3 16.976 2.6 16.576 2 16.576C1.4 16.576 1 16.976 1 17.576V19.376C1 21.876 3.1 23.976 5.6 23.976H7.4C8 23.976 8.4 23.576 8.4 22.976C8.4 22.376 8 21.976 7.5 21.976Z" fill="black"/>
<path d="M2 9.47607C2.6 9.47607 3 9.07607 3 8.47607V6.57607C3 5.17607 4.2 3.97607 5.6 3.97607H7.4C8 3.97607 8.4 3.57607 8.4 2.97607C8.4 2.37607 8 1.97607 7.5 1.97607H5.6C3.1 1.97607 1 4.07607 1 6.57607V8.37607C1 8.97607 1.4 9.47607 2 9.47607Z" fill="black"/>
<path d="M18.4 1.97607H16.6C16 1.97607 15.6 2.37607 15.6 2.97607C15.6 3.57607 16 3.97607 16.6 3.97607H18.4C19.8 3.97607 21 5.17607 21 6.57607V8.37607C21 8.97607 21.4 9.37607 22 9.37607C22.6 9.37607 23 8.97607 23 8.37607V6.57607C23 4.07607 20.9 1.97607 18.4 1.97607Z" fill="black"/>
<path d="M22 11.9761H2C1.4 11.9761 1 12.3761 1 12.9761C1 13.5761 1.4 13.9761 2 13.9761H7.1C6.5 14.5761 6 15.2761 5.7 16.0761C5.4 16.8761 5.5 17.7761 5.9 18.4761C6.4 19.1761 7.2 19.6761 8.1 19.6761H15.7C16.6 19.6761 17.4 19.2761 17.9 18.4761C18.4 17.7761 18.5 16.8761 18.1 16.0761C17.8 15.2761 17.3 14.5761 16.7 13.9761H22C22.6 13.9761 23 13.5761 23 12.9761C23 12.3761 22.6 11.9761 22 11.9761Z" fill="black"/>
</svg>

<svg xmlns="http://www.w3.org/2000/svg" fill="none" viewBox="0 0 24 25"><path fill="#000" d="M8.8 10.776h6.3c.6 0 1-.4 1-1 0-2.3-1.9-4.2-4.2-4.2s-4.2 1.9-4.2 4.2c.1.5.6 1 1.1 1m13.2 5.7c-.6 0-1 .4-1 1v1.8c0 1.5-1.2 2.6-2.6 2.6h-1.8c-.6 0-1 .4-1 1s.4 1 1 1h1.8c2.6 0 4.6-2.1 4.6-4.6v-1.8c0-.5-.4-1-1-1m-14.5 5.5H5.6c-1.4 0-2.6-1.2-2.6-2.6v-1.8c0-.6-.4-1-1-1s-1 .4-1 1v1.8c0 2.5 2.1 4.6 4.6 4.6h1.8c.6 0 1-.4 1-1s-.4-1-.9-1M2 9.476c.6 0 1-.4 1-1v-1.9c0-1.4 1.2-2.6 2.6-2.6h1.8c.6 0 1-.4 1-1s-.4-1-.9-1H5.6c-2.5 0-4.6 2.1-4.6 4.6v1.8c0 .6.4 1.1 1 1.1m16.4-7.5h-1.8c-.6 0-1 .4-1 1s.4 1 1 1h1.8c1.4 0 2.6 1.2 2.6 2.6v1.8c0 .6.4 1 1 1s1-.4 1-1v-1.8c0-2.5-2.1-4.6-4.6-4.6m3.6 10H2c-.6 0-1 .4-1 1s.4 1 1 1h5.1c-.6.6-1.1 1.3-1.4 2.1s-.2 1.7.2 2.4c.5.7 1.3 1.2 2.2 1.2h7.6c.9 0 1.7-.4 2.2-1.2.5-.7.6-1.6.2-2.4-.3-.8-.8-1.5-1.4-2.1H22c.6 0 1-.4 1-1s-.4-1-1-1"/></svg>
